assets/img/braze_icons/wind-02.svg

<svg fill="none" height="24" viewBox="0 0 24 24" width="24" xmlns="http://www.w3.org/2000/svg"><g clip-rule="evenodd" fill="#801ed7" fill-rule="evenodd"><path d="m19 7c-.5922 0-1.1233.25615-1.4909.66691-.3684.41153-1.0006.44655-1.4121.07822-.4115-.36832-.4465-1.00052-.0782-1.41204.731-.81674 1.7965-1.33309 2.9812-1.33309 2.2092 0 4 1.79086 4 4 0 2.2091-1.7908 4-4 4h-17c-.55228 0-1-.4477-1-1s.44772-1 1-1h17c1.1046 0 2-.8954 2-2 0-1.10457-.8954-2-2-2z"/><path d="m11 5c-.296 0-.561.1274-.7456.33358-.3683.41153-1.0005.44655-1.41203.07822-.41152-.36832-.44655-1.00052-.07822-1.41205.54789-.61215 1.34725-.99975 2.23585-.99975 1.6569 0 3 1.34315 3 3s-1.3431 3-3 3h-8.99998c-.55228 0-1-.44772-1-1s.44772-1 1-1h8.99998c.5523 0 1-.44771 1-1s-.4477-1-1-1z"/><path d="m14 19c-.296 0-.561-.1274-.7456-.3336-.3683-.4115-1.0005-.4465-1.412-.0782-.4116.3683-.4466 1.0005-.0782 1.412.5478.6122 1.3472.9998 2.2358.9998 1.6569 0 3-1.3431 3-3s-1.3431-3-3-3h-11.99998c-.55228 0-1 .4477-1 1s.44772 1 1 1h11.99998c.5523 0 1 .4477 1 1s-.4477 1-1 1z"/></g></svg>

<svg width="24" height="24" viewBox="0 0 24 24" fill="none" xmlns="http://www.w3.org/2000/svg">
<path fill-rule="evenodd" clip-rule="evenodd" d="M19 7C18.4078 7 17.8767 7.25615 17.5091 7.66691C17.1407 8.07844 16.5085 8.11346 16.097 7.74513C15.6855 7.37681 15.6505 6.74461 16.0188 6.33309C16.7498 5.51635 17.8153 5 19 5C21.2092 5 23 6.79086 23 9C23 11.2091 21.2092 13 19 13H2C1.44772 13 1 12.5523 1 12C1 11.4477 1.44772 11 2 11H19C20.1046 11 21 10.1046 21 9C21 7.89543 20.1046 7 19 7Z" fill="#801ED7"/>
<path fill-rule="evenodd" clip-rule="evenodd" d="M11 5C10.704 5 10.439 5.1274 10.2544 5.33358C9.8861 5.74511 9.2539 5.78013 8.84237 5.4118C8.43085 5.04348 8.39582 4.41128 8.76415 3.99975C9.31204 3.3876 10.1114 3 11 3C12.6569 3 14 4.34315 14 6C14 7.65685 12.6569 9 11 9H2.00002C1.44774 9 1.00002 8.55228 1.00002 8C1.00002 7.44772 1.44774 7 2.00002 7H11C11.5523 7 12 6.55229 12 6C12 5.44771 11.5523 5 11 5Z" fill="#801ED7"/>
<path fill-rule="evenodd" clip-rule="evenodd" d="M14 19C13.704 19 13.439 18.8726 13.2544 18.6664C12.8861 18.2549 12.2539 18.2199 11.8424 18.5882C11.4308 18.9565 11.3958 19.5887 11.7642 20.0002C12.312 20.6124 13.1114 21 14 21C15.6569 21 17 19.6569 17 18C17 16.3431 15.6569 15 14 15H2.00002C1.44774 15 1.00002 15.4477 1.00002 16C1.00002 16.5523 1.44774 17 2.00002 17H14C14.5523 17 15 17.4477 15 18C15 18.5523 14.5523 19 14 19Z" fill="#801ED7"/>
</svg>
